vendor/shopware/storefront/Resources/app/storefront/dist/assets/icon/default/editor-table.svg

<svg xmlns="http://www.w3.org/2000/svg" width="12" height="12" viewBox="0 0 12 12">
  <path fill="#758CA3" fill-rule="evenodd" d="M7,5 L10,5 L10,7 L7,7 L7,10 L5,10 L5,7 L2,7 L2,5 L5,5 L5,2 L7,2 L7,5 Z M2,0 L10,0 C11.1045695,-2.02906125e-16 12,0.8954305 12,2 L12,10 C12,11.1045695 11.1045695,12 10,12 L2,12 C0.8954305,12 1.3527075e-16,11.1045695 0,10 L0,2 C-1.3527075e-16,0.8954305 0.8954305,2.02906125e-16 2,0 Z M2,2 L2,10 L10,10 L10,2 L2,2 Z"/>
</svg>

<svg xmlns="http://www.w3.org/2000/svg" width="12" height="12" viewBox="0 0 12 12"><path fill="#758CA3" fill-rule="evenodd" d="M7 5h3v2H7v3H5V7H2V5h3V2h2v3zM2 0h8c1.1046 0 2 .8954 2 2v8c0 1.1046-.8954 2-2 2H2c-1.1046 0-2-.8954-2-2V2C0 .8954.8954 0 2 0zm0 2v8h8V2H2z"/></svg>
